src/main/resources/icons/AllIcons/actions/syncPanels_dark.svg

<!-- Copyright 2000-2021 JetBrains s.r.o. Use of this source code is governed by the Apache 2.0 license that can be found in the LICENSE file. -->
<svg xmlns="http://www.w3.org/2000/svg" width="16" height="16" viewBox="0 0 16 16">
  <g fill="none" fill-rule="evenodd">
    <path fill="#AFB1B3" d="M3 7L7 7 7 14 3 14 3 7zM4 8L4 13 6 13 6 8 4 8zM9 7L13 7 13 14 9 14 9 7zM10 8L10 13 12 13 12 8 10 8zM10.5772866 4.24124037C9.93667737 3.56469008 9.02998345 3.14265838 8.02471846 3.14265838 7.00748824 3.14265838 6.09118957 3.57479637 5.44938902 4.26550628L7.18240921 5.99849024 4.57165647 5.99849024C4.57157863 5.99890074 4.57150085 5.99931126 4.57142314 5.9997218L3.04316101 5.9997218C3.04321502 5.99931127 3.04326909 5.99890075 3.0433232 5.99849024L2.99822039 5.99849024 2.99822039 1.81438887 4.38363631 3.19977584C5.29826066 2.23890038 6.58968871 1.64 8.02099661 1.64 9.44223548 1.64 10.7255556 2.23050367 11.6389983 3.17955084L13.0041888 1.81438887 13.0041888 5.99849024 12.99867 5.99849024C12.9987241 5.99890075 12.9987782 5.99931127 12.9988322 5.9997218L11.4780138 5.9997218C11.4779361 5.99931126 11.4778583 5.99890074 11.4777804 5.99849024L8.82 5.99849024 10.5772866 4.24124037z"/>
  </g>
</svg>

<svg xmlns="http://www.w3.org/2000/svg" width="16" height="16" viewBox="0 0 16 16"><rect id="frame" width="16" height="16" fill="none"/><path fill="#AFB1B3" d="M3 7h4v7H3V7zm1 1v5h2V8H4zm5-1h4v7H9V7zm1 1v5h2V8h-2zm.577-3.759a3.505 3.505 0 0 0-2.552-1.098 3.505 3.505 0 0 0-2.576 1.123l1.733 1.732h-2.61V6H3.042v-.002h-.045V1.814L4.384 3.2A5.007 5.007 0 0 1 8.02 1.64c1.421 0 2.705.59 3.618 1.54l1.365-1.366v4.184H13V6h-1.521v-.002H8.82l1.757-1.757z" fill-rule="evenodd"/></svg>
